apps/ledger-live-desktop/src/renderer/screens/exchange/assets/visa.svg

<svg width="33" height="12" viewBox="0 0 33 12" fill="none" xmlns="http://www.w3.org/2000/svg">
<path d="M14.2992 11.8224H11.627L13.2983 0.212646H15.9705L14.2992 11.8224Z" fill="#00579F"/>
<path d="M23.9873 0.494407C23.2226 0.163749 22.4097 -0.0038906 21.5904 6.85218e-05C18.9518 6.85218e-05 17.0961 1.57775 17.082 3.84122C17.0596 5.50936 18.4125 6.43494 19.4228 6.9966C20.4527 7.56457 20.8085 7.93587 20.8085 8.44178C20.7973 9.22011 19.9724 9.57876 19.2037 9.57876C18.1363 9.57876 17.5652 9.39365 16.6963 8.96031L16.3442 8.77519L15.9697 11.3815C16.597 11.6971 17.7487 11.9874 18.9509 12C21.7542 12 23.58 10.4433 23.6015 8.03472C23.6128 6.71262 22.8984 5.69974 21.3544 4.87303C20.4181 4.34082 19.847 3.98321 19.847 3.43944C19.8582 2.94509 20.331 2.43918 21.3862 2.43918C22.0711 2.41728 22.7516 2.56936 23.3768 2.88408L23.6184 3.00715L23.9817 0.499671L23.9873 0.494407Z" fill="#00579F"/>
<path d="M27.5395 7.70874C27.7595 7.0419 28.6059 4.46079 28.6059 4.46079C28.5947 4.48603 28.826 3.78134 28.958 3.34905L29.1453 4.34931C29.1453 4.34931 29.6518 7.1292 29.7613 7.70874H27.5395ZM30.8381 0.211548H28.7707C28.1331 0.211548 27.6472 0.421898 27.3738 1.17498L23.4048 11.8223H26.2137L26.7755 10.0805H30.2061C30.2829 10.4886 30.5254 11.8223 30.5254 11.8223H33L30.8465 0.211548H30.8381Z" fill="#00579F"/>
<path d="M9.3948 0.211548L6.77783 8.12946L6.49226 6.52336C6.00819 4.67115 4.49044 2.65802 2.79761 1.65671L5.19454 11.8097H8.02031L12.2206 0.211548H9.3948Z" fill="#00579F"/>
<path d="M4.351 0.211548H0.0440064L0 0.447149C3.35477 1.41059 5.57568 3.73295 6.48858 6.52441L5.55228 1.1876C5.39872 0.451347 4.92589 0.240998 4.34351 0.211548H4.351Z" fill="#FAA61A"/>
</svg>

<svg xmlns="http://www.w3.org/2000/svg" width="33" height="12" fill="none" viewBox="0 0 33 12"><path fill="#00579f" d="M14.3 11.822h-2.673L13.298.212h2.672zM23.987.494A6 6 0 0 0 21.59 0c-2.638 0-4.494 1.578-4.508 3.841-.022 1.668 1.33 2.594 2.34 3.156 1.03.568 1.386.939 1.386 1.445-.01.778-.836 1.137-1.604 1.137-1.068 0-1.639-.185-2.508-.619l-.352-.185-.374 2.607c.627.315 1.779.605 2.98.618 2.804 0 4.63-1.557 4.652-3.965.01-1.322-.704-2.335-2.248-3.162-.936-.532-1.507-.89-1.507-1.434.011-.494.484-1 1.54-1a4.1 4.1 0 0 1 1.99.445l.241.123L23.982.5zm3.553 7.215c.22-.667 1.066-3.248 1.066-3.248-.011.025.22-.68.352-1.112l.187 1s.507 2.78.616 3.36zM30.838.212h-2.067c-.638 0-1.124.21-1.397.963l-3.97 10.647h2.81l.562-1.741h3.43c.077.408.32 1.741.32 1.741H33L30.846.212zm-21.443 0L6.778 8.129l-.286-1.606C6.008 4.671 4.49 2.658 2.798 1.657L5.195 11.81H8.02L12.22.212z"/><path fill="#faa61a" d="M4.351.212H.044L0 .447c3.355.964 5.576 3.286 6.489 6.077l-.937-5.336C5.4.45 4.926.24 4.344.212z"/></svg>
